X: 1782
T: Sipihr Peşrev
C: Dilhayat Kalfa
O: Turkey
F: http://compmusic.upf.edu/node/140
N: eski-sipihr--pesrev--muhammes----dilhayat_kalfa
N: makam= eski-sipihr
N: form= pesrev
N: usul= muhammes = 32/4
M: 32/4
L: 1/16
K: C _1/4B _7/8d  
Q: 1/4=72
%%MIDI tuningsystem comma53
a4 ^g4 a6 g2  | a2 ^g2 a2 b2 =b2 c'2 b2 a2  | \
w:  1. HANE  |   | 
=b4 a2 b2 c'2 b2 a2 ^g2  | a4 ^g2 a2 g4 a4  | 
w:   |   | 
z2 =b2 a2 ^g2 f2 e2 ^d2 e2  | ^d2 e2 f2 d2 e6 ^g2  | \
w:   |   | 
a4 z4 a3 ^g f2 g2  | f4 ^g4 a4 g2 f2  | 
w:   |   | 
e4 z4 e2 d2 c2 B2  | A4 G2 A2 B2 c2 B2 A2  | \
w:   |   | 
c2 d2 c2 B2 c2 d2 c2 d2  | 
w:   | 
e2 f2 e2 d2 f3 e =d2 e2  | =d4 e2 ^f2 g2 a2 g2 =f2  | \
w:   |   | 
e3 ^d c2 _7/8d2 d2 c4 B2  | 
w:   | 
c4 B4 A4 G4  | A3 G A2 B2 c6 z2  | g3 ^f g2 a2 g2 =f2 e4  | \
w:   |   |  TESLİM  | 
f3 e f2 g2 f2 e2 d4  | 
w:   | 
e2 d2 e2 f2 e2 d2 c2 d2  | c4 B2 c2 d2 e2 d2 c2  | \
w:   |   | 
c2 d2 c2 B2 B A B c B2 A2  | 
w:   | 
G4 e4 e2 d2 c2 d2  | d2 c4 B2 B3 A G2 A2  | \
w:   |   | 
G4 A8 z4  | |


